X: 1
T: General Campbell
C:Robert Macintosh
R:Strathspey
Z:Bruce Shawyer
K:A
M:4/4
L:1/16
E2 | A4 c3A FA3 E3C | E3e dcBA c3B B3c | d3f c3e B3A GE3 | F3d B3G A3B A2 :|
e2 | a3e c3A B3A GE3 | A3a e3c ABcd e3c | d3g c3a B3A G3E | A3d c3B cA3 A2 |
e2 | a3e c3A B3A G3E | ABcd e3c A3a e3c | d3b c3a B3c d3f | e3a b3g a4 a2 |]
%%center Book18/GeneralCampbell_A-BS.abc

%%sep 1 1 500
%%sep 1 1 500

